X: 33990
T: Reel à Joseph
R: reel
M: 4/4
K: Gmajor
A|{A}B2(GB) BDGB|{G}A2(FA) AFAc|{A}B2(GB) Bcdg|egf(a ge)dc|
{A}B2(GB) BDGB|A/A/A (FA) AFA(c|BG)Bd gfg(e|TcA)FA BGG:|
|:(f|g2)dc BG(B,2|C)B,C(E {F}ED)B,D|G3(A BA)GB|A(d{e}d^c) d^def|
g2(dc) BG(B,2|C)B,C(E {F}ED)B,D|{D}E2(3(DEF) GBAc|(3(Bcd) (Ac) BGG:|

